styles/4/Numix/256/actions/pink-document-open.svg

<?xml version="1.0" encoding="UTF-8" standalone="no"?>
<!-- Created with Inkscape (http://www.inkscape.org/) -->

<svg
   xmlns:dc="http://purl.org/dc/elements/1.1/"
   xmlns:cc="http://creativecommons.org/ns#"
   xmlns:rdf="http://www.w3.org/1999/02/22-rdf-syntax-ns#"
   xmlns:svg="http://www.w3.org/2000/svg"
   xmlns="http://www.w3.org/2000/svg"
   xmlns:sodipodi="http://sodipodi.sourceforge.net/DTD/sodipodi-0.dtd"
   xmlns:inkscape="http://www.inkscape.org/namespaces/inkscape"
   width="256"
   height="256"
   id="svg2"
   version="1.1"
   inkscape:version="0.91 r"
   sodipodi:docname="pink-document-open.svg"
   inkscape:export-filename="/media/Data/Main/Visuals/Icons/Numix/Desktop/repos/numix-wiki/Gjorgi/Numix-folders/48/New/folder-144.png"
   inkscape:export-xdpi="270"
   inkscape:export-ydpi="270">
  <defs
     id="defs4" />
  <sodipodi:namedview
     id="base"
     pagecolor="#ffffff"
     bordercolor="#666666"
     borderopacity="1.0"
     inkscape:pageopacity="0.0"
     inkscape:pageshadow="2"
     inkscape:zoom="2.856255"
     inkscape:cx="228.86266"
     inkscape:cy="223.90966"
     inkscape:document-units="px"
     inkscape:current-layer="layer1"
     showgrid="true"
     inkscape:window-width="1920"
     inkscape:window-height="1023"
     inkscape:window-x="0"
     inkscape:window-y="28"
     inkscape:window-maximized="1"
     showguides="true"
     inkscape:guide-bbox="true">
    <inkscape:grid
       type="xygrid"
       id="grid2985"
       empspacing="5"
       visible="true"
       enabled="true"
       snapvisiblegridlinesonly="true" />
  </sodipodi:namedview>
  <metadata
     id="metadata7">
    <rdf:RDF>
      <cc:Work
         rdf:about="">
        <dc:format>image/svg+xml</dc:format>
        <dc:type
           rdf:resource="http://purl.org/dc/dcmitype/StillImage" />
        <dc:title />
      </cc:Work>
    </rdf:RDF>
  </metadata>
  <g
     inkscape:label="Layer 1"
     inkscape:groupmode="layer"
     id="layer1"
     transform="translate(0,-796.3622)">
    <path
       style="fill:#e3e1cf;fill-opacity:1;stroke:none"
       d="M 29 20 C 26.23 20 24 22.23 24 25 L 24 105 C 24 107.77 26.23 110 29 110 L 227 110 C 229.77 110 232 107.77 232 105 L 232 37 L 215 20 L 29 20 z "
       transform="translate(0,796.3622)"
       id="rect2987" />
    <rect
       style="fill:#f06292;fill-opacity:1;stroke:none"
       id="rect2990-7"
       width="240"
       height="140"
       x="8"
       y="892.36218"
       rx="16"
       ry="14" />
    <path
       inkscape:connector-curvature="0"
       style="opacity:0.1;fill:#ffffff;fill-opacity:1;stroke:none"
       d="m 24,892.36226 c -8.864,0 -16,6.244 -16,14 l 0,4 c 0,-7.756 7.136,-14 16,-14 l 208,0 c 8.864,0 16,6.244 16,14 l 0,-4 c 0,-7.756 -7.136,-14 -16,-14 l -208,0 z"
       id="rect2994" />
    <path
       style="fill:#ffffff;fill-opacity:1;stroke:none"
       d="m 215,20 0,17 17,0 z"
       id="path3757"
       inkscape:connector-curvature="0"
       transform="translate(0,796.3622)"
       sodipodi:nodetypes="cccc" />
    <path
       sodipodi:nodetypes="cccc"
       inkscape:connector-curvature="0"
       id="path3759"
       d="m 232,850.3622 0,-17 -17,0 z"
       style="fill:#000000;fill-opacity:1;stroke:none;opacity:0.2" />
    <rect
       style="fill:#a1a195;fill-opacity:1;stroke:none"
       id="rect3794"
       width="140"
       height="10"
       x="54"
       y="827.36218"
       rx="6"
       ry="6" />
    <rect
       ry="6"
       rx="6"
       y="847.36218"
       x="54"
       height="10"
       width="160"
       id="rect3847"
       style="fill:#a1a195;fill-opacity:1;stroke:none" />
    <rect
       style="fill:#a1a195;fill-opacity:1;stroke:none"
       id="rect3849"
       width="160"
       height="10"
       x="54"
       y="867.36218"
       rx="6"
       ry="6" />
  </g>
</svg>

<!-- Created with Inkscape (http://www.inkscape.org/) -->
<svg xmlns="http://www.w3.org/2000/svg" viewBox="0 0 256 256">
 <g transform="translate(0,-796.3622)">
  <path d="m 29 20 c -2.77 0 -5 2.23 -5 5 l 0 80 c 0 2.77 2.23 5 5 5 l 198 0 c 2.77 0 5 -2.23 5 -5 l 0 -68 l -17 -17 l -186 0 z" transform="translate(0,796.3622)" style="fill:#e3e1cf;fill-opacity:1;stroke:none"/>
  <rect width="240" height="140" x="8" y="892.36" rx="16" ry="14" style="fill:#f06292;fill-opacity:1;stroke:none"/>
  <path d="m 24 892.36 c -8.864 0 -16 6.244 -16 14 l 0 4 c 0 -7.756 7.136 -14 16 -14 l 208 0 c 8.864 0 16 6.244 16 14 l 0 -4 c 0 -7.756 -7.136 -14 -16 -14 l -208 0 z" style="fill:#fff;opacity:0.1;fill-opacity:1;stroke:none"/>
  <path d="m 215 20 0 17 17 0 z" transform="translate(0,796.3622)" style="fill:#fff;fill-opacity:1;stroke:none"/>
  <path d="m 232 850.36 0 -17 -17 0 z" style="fill:#000;opacity:0.2;fill-opacity:1;stroke:none"/>
  <rect width="140" height="10" x="54" y="827.36" rx="6" ry="5" style="fill:#a1a195;fill-opacity:1;stroke:none"/>
  <rect ry="5" rx="6" y="847.36" x="54" height="10" width="160" style="fill:#a1a195;fill-opacity:1;stroke:none"/>
  <rect width="160" height="10" x="54" y="867.36" rx="6" ry="5" style="fill:#a1a195;fill-opacity:1;stroke:none"/>
 </g>
</svg>
